X: 115
T: REEL: Boy on the Hilltop
C: C: Trad.; S: Various
C: Set Leaders: Alexey, Anton
Z: Anton Zille ed.; Thady Quill at The Session
N: https://thesession.org/members/26966/sets/99333
R: Reel
M: 4/4
L: 1/8
Q: 1/2=100
K: Ador
A3c B2AG|EGGF G2AG|EA~A2 BABd|egdB BAdB|
A3c BGAG|EG~G2 G2AB|c2ec B2GB|dBGA BAAG||
A2 B/c/d egdB|GBdB defg|a2ed egdB|GBdB BAA2|
aged egdB|GB~B2 defg|afge fdef|gbaf gedB||

